X: 1155
T: Irak Seyir
C: Erol Bingöl
O: Turkey
F: http://compmusic.upf.edu/node/140
N: irak--seyir--sofyan--1--erol_bingol
N: makam= irak
N: form= seyir
N: usul= sofyan = 4/4
M: 4/4
L: 1/16
K: C _2/4B ^3/4f  
Q: 1/4=60
%%MIDI tuningsystem comma53
F6G2 A4 B4  | c2B2 A2B2 A3G F4  | F2G2 A2B2 c4 d4  | \
w:   |   |   | 
c3B cBBA A8  | 
w:   | 
d4 c2d2 e2=f2 e2d2  | g2=f2 e2d2 c3B A4  | \
w:   |   | 
A2B2 c2B2 A4 G4  | A2G2 F2^E2 F8  | 
w:   |   | 
|


